public/CodePen.svg

<svg data-v-0fea1b4d="" xmlns="http://www.w3.org/2000/svg" width="15" height="15" viewBox="0 0 32 32" aria-labelledby="codepen" role="presentation"><title id="codepen" lang="en">codepen</title> <path fill="currentColor" d="M29.555 11.501l-14-9.333c-0.336-0.224-0.774-0.224-1.109 0l-14 9.333c-0.278 0.185-0.445 0.498-0.445 0.832v9.333c0 0.334 0.167 0.647 0.445 0.832l14 9.333c0.168 0.112 0.361 0.168 0.555 0.168s0.387-0.056 0.555-0.168l14-9.333c0.278-0.185 0.445-0.498 0.445-0.832v-9.333c0-0.334-0.167-0.647-0.445-0.832zM15 20.465l-5.197-3.465 5.197-3.465 5.197 3.465-5.197 3.465zM16 11.798v-6.93l11.197 7.465-5.197 3.465-6-4zM14 11.798l-6 4-5.197-3.465 11.197-7.465v6.93zM6.197 17l-4.197 2.798v-5.596l4.197 2.798zM8 18.202l6 4v6.93l-11.197-7.465 5.197-3.465zM16 22.202l6-4 5.197 3.465-11.197 7.465v-6.93zM23.803 17l4.197-2.798v5.596l-4.197-2.798z"></path></svg>

<svg xmlns="http://www.w3.org/2000/svg" width="15" height="15" viewBox="0 0 32 32" aria-labelledby="codepen"><path fill="currentColor" d="m29.555 11.501-14-9.333a1 1 0 0 0-1.109 0l-14 9.333a1 1 0 0 0-.445.832v9.333a1 1 0 0 0 .445.832l14 9.333a.998.998 0 0 0 1.11 0l14-9.333a1 1 0 0 0 .445-.832v-9.333a1 1 0 0 0-.445-.832zM15 20.465 9.803 17 15 13.535 20.197 17 15 20.465zm1-8.667v-6.93l11.197 7.465L22 15.798l-6-4zm-2 0-6 4-5.197-3.465L14 4.868v6.93zM6.197 17 2 19.798v-5.596L6.197 17zM8 18.202l6 4v6.93L2.803 21.667 8 18.202zm8 4 6-4 5.197 3.465L16 29.132v-6.93zM23.803 17 28 14.202v5.596L23.803 17z"/></svg>
